X: 20833
M: 2/4
L: 1/16
K: F
V: 1 name="6"
c2 |\
de |\
f2a2 e2g2 | d2f2 AGAB | B2G2 A2F2 | G2F2 D2de |\
f2a2 e2g2 | d2f2 AGAc | B2G2 BAGF | C2F2"^D.C."F2 |]


